;FLAVOR:Marlin
;TIME:373
;Filament used: 0.205547m
;Layer height: 0.2
;MINX:125.2
;MINY:139.617
;MINZ:0.2
;MAXX:174.808
;MAXY:160.385
;MAXZ:4.2
;TARGET_MACHINE.NAME:Creality K1 Max
;Generated with Cura_SteamEngine 5.10.0
M140 S0
M104 S0 
START_PRINT EXTRUDER_TEMP=200 BED_TEMP=60

M82 ;absolute extrusion mode
G92 E0
G92 E0
G1 F2400 E-0.5
;LAYER_COUNT:21
;LAYER:0
M107
G0 F6000 X128.28 Y141.454 Z0.2
;TYPE:SKIRT
G1 F2400 E0
G1 F1200 X130.303 Y140.247 E0.07835
G1 X132.021 Y139.965 E0.13626
G1 X161.988 Y139.89 E1.13297
G1 X162.265 Y139.821 E1.14246
G1 X163.65 Y139.639 E1.18892
G1 X167.84 Y139.617 E1.32828
G1 X169.752 Y140.086 E1.39376
G1 X171.777 Y141.136 E1.46963
G1 X173.24 Y142.701 E1.54088
G1 X174.253 Y144.406 E1.60685
G1 X174.511 Y145.131 E1.63244
G1 X174.777 Y147.057 E1.69711
G1 X174.807 Y149.4 E1.77504
G1 X174.644 Y150.069 E1.79795
G1 X174.773 Y151.03 E1.8302
G1 X174.808 Y153.435 E1.91019
G1 X174.35 Y155.296 E1.97394
G1 X173.284 Y157.363 E2.05129
G1 X171.704 Y158.835 E2.12311
G1 X170.108 Y159.78 E2.18481
G1 X169.36 Y160.084 E2.21166
G1 X167.701 Y160.334 E2.26746
G1 X163.13 Y160.385 E2.4195
G1 X162.05 Y160.111 E2.45656
G1 X132.147 Y160.11 E3.45114
G1 X130.251 Y159.644 E3.51608
G1 X128.223 Y158.591 E3.59208
G1 X126.75 Y157.016 E3.6638
G1 X125.741 Y155.306 E3.72984
G1 X125.518 Y154.777 E3.74894
G1 X125.247 Y152.957 E3.81014
G1 X125.2 Y146.829 E4.01396
G1 X125.657 Y144.962 E4.07789
G1 X126.719 Y142.913 E4.15465
G1 X128.28 Y141.454 E4.22572
G0 F6000 X128.519 Y141.778
G1 F1200 X130.443 Y140.63 E4.30024
G1 X132.086 Y140.36 E4.35561
G1 X162.038 Y140.29 E5.35183
G1 X162.317 Y140.218 E5.36141
G1 X163.702 Y140.036 E5.40787
G1 X167.795 Y140.017 E5.54401
G1 X169.609 Y140.462 E5.60613
G1 X171.532 Y141.459 E5.67817
G1 X172.918 Y142.942 E5.74569
G1 X173.889 Y144.576 E5.8089
G1 X174.121 Y145.228 E5.83192
G1 X174.377 Y147.062 E5.89351
G1 X174.406 Y149.354 E5.96975
G1 X174.238 Y150.047 E5.99347
G1 X174.373 Y151.036 E6.02667
G1 X174.407 Y153.391 E6.105
G1 X173.973 Y155.156 E6.16546
G1 X172.962 Y157.115 E6.23878
G1 X171.463 Y158.513 E6.30695
G1 X169.957 Y159.409 E6.36524
G1 X169.253 Y159.695 E6.39051
G1 X167.641 Y159.938 E6.44473
G1 X163.178 Y159.984 E6.59318
G1 X162.101 Y159.711 E6.63013
G1 X132.193 Y159.71 E7.62488
G1 X130.394 Y159.268 E7.68649
G1 X128.468 Y158.268 E7.75867
G1 X127.073 Y156.776 E7.82661
G1 X126.11 Y155.151 E7.88943
G1 X125.907 Y154.669 E7.90683
G1 X125.643 Y152.898 E7.96638
G1 X125.6 Y146.877 E8.16665
G1 X126.035 Y145.101 E8.22746
G1 X127.042 Y143.158 E8.30025
G1 X128.519 Y141.778 E8.36748
G0 F6000 X128.761 Y142.099
G1 F1200 X130.581 Y141.013 E8.43797
G1 X132.151 Y140.755 E8.49089
G1 X162.092 Y140.69 E9.48674
G1 X162.369 Y140.615 E9.49628
G1 X163.754 Y140.433 E9.54274
G1 X167.75 Y140.417 E9.67565
G1 X169.466 Y140.838 E9.73442
G1 X171.287 Y141.782 E9.80264
G1 X172.596 Y143.183 E9.86641
G1 X173.525 Y144.746 E9.92688
G1 X173.731 Y145.325 E9.94732
G1 X173.977 Y147.067 E10.00584
G1 X174.005 Y149.308 E10.08038
G1 X173.831 Y150.026 E10.10495
G1 X173.973 Y151.042 E10.13907
G1 X174.006 Y153.348 E10.21578
G1 X173.597 Y155.013 E10.2728
G1 X172.638 Y156.87 E10.34232
G1 X171.224 Y158.189 E10.40663
G1 X169.752 Y159.065 E10.4636
G1 X169.151 Y159.305 E10.48513
G1 X167.581 Y159.542 E10.53794
G1 X163.226 Y159.583 E10.68279
G1 X162.152 Y159.311 E10.71964
G1 X132.24 Y159.31 E11.71452
G1 X130.536 Y158.891 E11.77288
G1 X128.713 Y157.945 E11.84119
G1 X127.397 Y156.537 E11.90529
G1 X126.479 Y154.996 E11.96495
G1 X126.296 Y154.561 E11.98065
G1 X126.039 Y152.839 E12.03856
G1 X126 Y146.926 E12.23523
G1 X126.413 Y145.24 E12.29296
G1 X127.365 Y143.403 E12.36178
G1 X128.761 Y142.099 E12.42532
G0 F6000 X129.003 Y142.42
G1 F1200 X130.719 Y141.396 E12.49178
G1 X132.216 Y141.15 E12.54224
G1 X162.148 Y141.09 E13.53778
G1 X162.422 Y141.011 E13.54727
G1 X163.756 Y140.833 E13.59203
G1 X167.705 Y140.817 E13.72338
G1 X169.323 Y141.214 E13.77879
G1 X171.042 Y142.105 E13.84319
G1 X172.274 Y143.424 E13.90322
G1 X173.161 Y144.916 E13.96095
G1 X173.341 Y145.421 E13.97878
G1 X173.577 Y147.072 E14.03425
G1 X173.604 Y149.262 E14.10709
G1 X173.424 Y150.006 E14.13255
G1 X173.573 Y151.048 E14.16756
G1 X173.605 Y153.305 E14.24264
G1 X173.221 Y154.87 E14.29624
G1 X172.314 Y156.625 E14.36194
G1 X170.985 Y157.865 E14.4224
G1 X169.547 Y158.721 E14.47806
G1 X169.047 Y158.916 E14.49591
G1 X167.521 Y159.146 E14.54724
G1 X163.275 Y159.183 E14.68846
G1 X162.203 Y158.911 E14.72525
G1 X132.286 Y158.91 E15.72029
G1 X130.679 Y158.515 E15.77533
G1 X128.958 Y157.622 E15.83982
G1 X127.721 Y156.298 E15.90008
G1 X126.823 Y154.791 E15.95843
G1 X126.685 Y154.454 E15.97054
G1 X126.435 Y152.78 E16.02684
G1 X126.4 Y146.975 E16.21992
G1 X126.791 Y145.379 E16.27457
G1 X127.688 Y143.648 E16.33941
G1 X129.003 Y142.42 E16.39926
G0 F6000 X129.245 Y142.741
G1 F1200 X130.857 Y141.779 E16.46169
G1 X132.281 Y141.545 E16.50969
G1 X162.211 Y141.49 E17.50517
G1 X162.476 Y141.407 E17.51441
G1 X163.758 Y141.233 E17.55744
G1 X167.66 Y141.217 E17.68722
G1 X169.18 Y141.59 E17.73927
G1 X170.797 Y142.428 E17.79985
G1 X171.952 Y143.665 E17.85614
G1 X172.797 Y145.086 E17.91112
G1 X172.951 Y145.518 E17.92638
G1 X173.177 Y147.077 E17.97877
G1 X173.203 Y149.216 E18.04992
G1 X173.017 Y149.987 E18.0763
G1 X173.173 Y151.054 E18.11217
G1 X173.204 Y153.258 E18.18548
G1 X172.843 Y154.731 E18.23592
G1 X171.99 Y156.38 E18.29767
G1 X170.746 Y157.541 E18.35427
G1 X169.342 Y158.377 E18.40862
G1 X168.947 Y158.526 E18.42266
G1 X167.461 Y158.75 E18.47264
G1 X163.325 Y158.783 E18.61021
G1 X162.255 Y158.511 E18.64693
G1 X132.332 Y158.51 E19.64217
G1 X130.822 Y158.139 E19.69389
G1 X129.203 Y157.299 E19.75455
G1 X128.045 Y156.059 E19.81098
G1 X127.167 Y154.586 E19.86802
G1 X127.072 Y154.343 E19.8767
G1 X126.835 Y152.778 E19.92934
G1 X126.8 Y147.024 E20.12072
G1 X127.169 Y145.518 E20.1723
G1 X128.011 Y143.893 E20.23317
G1 X129.245 Y142.741 E20.28932
G0 F6000 X129.487 Y143.062
G1 F1200 X130.995 Y142.162 E20.34773
G1 X132.346 Y141.94 E20.39326
G1 X162.274 Y141.89 E21.38867
G1 X162.596 Y141.789 E21.3999
G1 X163.76 Y141.633 E21.43896
G1 X167.615 Y141.617 E21.56718
G1 X169.037 Y141.966 E21.61588
G1 X170.552 Y142.751 E21.67263
G1 X171.63 Y143.906 E21.72518
G1 X172.432 Y145.255 E21.77737
G1 X172.561 Y145.616 E21.79013
G1 X172.777 Y147.082 E21.83941
G1 X172.802 Y149.17 E21.90886
G1 X172.609 Y149.97 E21.93623
G1 X172.773 Y151.06 E21.9729
G1 X172.803 Y153.211 E22.04445
G1 X172.465 Y154.592 E22.09173
G1 X171.666 Y156.135 E22.14953
G1 X170.507 Y157.217 E22.20226
G1 X169.137 Y158.033 E22.2553
G1 X168.848 Y158.136 E22.2655
G1 X167.401 Y158.354 E22.31417
G1 X163.375 Y158.383 E22.44808
G1 X162.307 Y158.111 E22.48474
G1 X132.379 Y158.11 E23.48015
G1 X130.964 Y157.762 E23.52861
G1 X129.448 Y156.976 E23.58541
G1 X128.369 Y155.82 E23.638
G1 X127.511 Y154.381 E23.69373
G1 X127.46 Y154.238 E23.69878
G1 X127.235 Y152.776 E23.74798
G1 X127.2 Y147.073 E23.93766
G1 X127.547 Y145.657 E23.98615
G1 X128.334 Y144.138 E24.04305
G1 X129.487 Y143.062 E24.09551
G0 F6000 X129.729 Y143.383
G1 F1200 X131.133 Y142.545 E24.14989
G1 X132.411 Y142.335 E24.19297
G1 X162.34 Y142.29 E25.18841
G1 X162.65 Y142.185 E25.1993
G1 X163.762 Y142.033 E25.23662
G1 X167.57 Y142.017 E25.36328
G1 X168.894 Y142.342 E25.40862
G1 X170.307 Y143.074 E25.46155
G1 X171.308 Y144.147 E25.51036
G1 X172.067 Y145.424 E25.55977
G1 X172.171 Y145.714 E25.57002
G1 X172.377 Y147.087 E25.61619
G1 X172.401 Y149.124 E25.68395
G1 X172.201 Y149.953 E25.71231
G1 X172.377 Y151.12 E25.75157
G1 X172.402 Y153.164 E25.81955
G1 X172.087 Y154.453 E25.86369
G1 X171.343 Y155.89 E25.91751
G1 X170.268 Y156.893 E25.96641
G1 X168.932 Y157.689 E26.01813
G1 X168.788 Y157.74 E26.02322
G1 X167.341 Y157.958 E26.07189
G1 X163.425 Y157.983 E26.20214
G1 X162.359 Y157.711 E26.23873
G1 X132.425 Y157.71 E27.23434
G1 X131.107 Y157.386 E27.27948
G1 X129.693 Y156.653 E27.33245
G1 X128.693 Y155.581 E27.38121
G1 X127.855 Y154.176 E27.43562
G1 X127.635 Y152.774 E27.48282
G1 X127.6 Y147.122 E27.67081
G1 X127.925 Y145.796 E27.71622
G1 X128.657 Y144.383 E27.76915
G1 X129.729 Y143.383 E27.81791
G0 F6000 X129.974 Y143.702
G1 F1200 X131.271 Y142.928 E27.86815
G1 X132.476 Y142.73 E27.90876
G1 X162.413 Y142.69 E28.90447
G1 X162.705 Y142.581 E28.91484
G1 X163.764 Y142.433 E28.9504
G1 X167.525 Y142.417 E29.07549
G1 X168.751 Y142.718 E29.11748
G1 X170.06 Y143.396 E29.16651
G1 X170.987 Y144.39 E29.21172
G1 X171.723 Y145.628 E29.25962
G1 X171.775 Y145.773 E29.26475
G1 X171.981 Y147.146 E29.31092
G1 X172 Y149.078 E29.37519
G1 X171.789 Y149.955 E29.40519
G1 X171.812 Y150.044 E29.40824
G1 X171.981 Y151.179 E29.44641
G1 X172.001 Y153.117 E29.51087
G1 X171.709 Y154.314 E29.55185
G1 X171.021 Y155.643 E29.60163
G1 X170.026 Y156.571 E29.64688
G1 X168.727 Y157.345 E29.69717
G1 X167.338 Y157.558 E29.74391
G1 X163.476 Y157.583 E29.87237
G1 X162.411 Y157.311 E29.90892
G1 X132.471 Y157.31 E30.90473
G1 X131.25 Y157.01 E30.94655
G1 X129.94 Y156.331 E30.99563
G1 X129.012 Y155.336 E31.04088
G1 X128.238 Y154.039 E31.09112
G1 X128.035 Y152.772 E31.13379
G1 X128 Y147.167 E31.32022
G1 X128.301 Y145.939 E31.36227
G1 X128.979 Y144.63 E31.4113
G1 X129.974 Y143.702 E31.45656
G0 F6000 X130.216 Y144.024
G1 F1200 X131.411 Y143.311 E31.50284
G1 X132.541 Y143.125 E31.54093
G1 X162.485 Y143.09 E32.53687
G1 X162.802 Y142.971 E32.54813
G1 X163.766 Y142.833 E32.58052
G1 X167.48 Y142.817 E32.70405
G1 X168.608 Y143.094 E32.74269
G1 X169.813 Y143.718 E32.78782
G1 X170.666 Y144.633 E32.82943
G1 X171.379 Y145.832 E32.87582
G1 X171.585 Y147.205 E32.922
G1 X171.6 Y149.032 E32.98277
G1 X171.375 Y149.966 E33.01472
G1 X171.416 Y150.103 E33.01948
G1 X171.585 Y151.238 E33.05764
G1 X171.6 Y153.069 E33.11855
G1 X171.331 Y154.175 E33.1564
G1 X170.699 Y155.396 E33.20213
G1 X169.784 Y156.249 E33.24374
G1 X168.588 Y156.962 E33.29005
G1 X167.335 Y157.158 E33.33223
G1 X163.525 Y157.183 E33.45896
G1 X162.583 Y156.948 E33.49125
G1 X162.484 Y156.911 E33.49476
G1 X132.517 Y156.91 E34.49147
G1 X131.393 Y156.634 E34.52996
G1 X130.187 Y156.009 E34.57514
G1 X129.334 Y155.094 E34.61675
G1 X128.621 Y153.899 E34.66303
G1 X128.435 Y152.769 E34.70112
G1 X128.4 Y147.212 E34.88595
G1 X128.677 Y146.082 E34.92465
G1 X129.301 Y144.877 E34.96978
G1 X130.216 Y144.024 E35.01139
G0 F6000 X130.458 Y144.346
G1 F1200 X131.551 Y143.694 E35.05372
G1 X132.606 Y143.52 E35.08928
G1 X162.564 Y143.49 E36.08569
G1 X162.86 Y143.367 E36.09635
G1 X163.768 Y143.233 E36.12688
G1 X167.435 Y143.217 E36.24884
G1 X168.465 Y143.47 E36.28412
G1 X169.566 Y144.04 E36.32535
G1 X170.344 Y144.875 E36.36331
G1 X170.996 Y145.971 E36.40573
G1 X171.185 Y147.208 E36.44735
G1 X171.2 Y148.985 E36.50646
G1 X170.957 Y149.992 E36.54091
G1 X171.021 Y150.163 E36.54698
G1 X171.185 Y151.241 E36.58325
G1 X171.2 Y153.021 E36.64245
G1 X170.953 Y154.036 E36.6772
G1 X170.377 Y155.149 E36.71888
G1 X169.542 Y155.927 E36.75684
G1 X168.448 Y156.579 E36.7992
G1 X167.332 Y156.758 E36.83679
G1 X163.573 Y156.783 E36.96182
G1 X162.68 Y156.56 E36.99243
G1 X162.562 Y156.511 E36.99668
G1 X132.564 Y156.51 E37.99442
G1 X131.535 Y156.257 E38.02966
G1 X130.434 Y155.687 E38.0709
G1 X129.656 Y154.852 E38.10886
G1 X129.004 Y153.759 E38.15119
G1 X128.83 Y152.704 E38.18675
G1 X128.8 Y147.257 E38.36792
G1 X129.053 Y146.225 E38.40326
G1 X129.623 Y145.124 E38.4445
G1 X130.458 Y144.346 E38.48246
G0 F6000 X130.7 Y144.668
G1 F1200 X131.691 Y144.077 E38.52083
G1 X132.671 Y143.915 E38.55387
G1 X162.644 Y143.89 E39.55078
G1 X162.966 Y143.756 E39.56238
G1 X163.826 Y143.629 E39.59129
G1 X167.39 Y143.617 E39.70983
G1 X168.322 Y143.846 E39.74175
G1 X169.319 Y144.362 E39.77909
G1 X170.022 Y145.117 E39.8134
G1 X170.613 Y146.11 E39.85184
G1 X170.785 Y147.211 E39.8889
G1 X170.8 Y148.938 E39.94634
G1 X170.597 Y149.778 E39.97509
G1 X170.511 Y149.977 E39.9823
G1 X170.626 Y150.225 E39.99139
G1 X170.785 Y151.244 E40.02569
G1 X170.8 Y152.973 E40.0832
G1 X170.575 Y153.897 E40.11483
G1 X170.055 Y154.902 E40.15247
G1 X169.3 Y155.605 E40.18678
G1 X168.309 Y156.196 E40.22515
G1 X167.329 Y156.358 E40.25819
G1 X163.619 Y156.383 E40.38159
G1 X162.833 Y156.19 E40.40851
G1 X162.642 Y156.111 E40.41538
G1 X132.61 Y156.11 E41.41425
G1 X131.678 Y155.881 E41.44617
G1 X130.681 Y155.365 E41.48351
G1 X129.978 Y154.61 E41.51782
G1 X129.387 Y153.619 E41.5562
G1 X129.225 Y152.639 E41.58924
G1 X129.2 Y147.302 E41.76675
G1 X129.429 Y146.368 E41.79873
G1 X129.945 Y145.371 E41.83607
G1 X130.7 Y144.668 E41.87038
G0 F6000 X130.939 Y144.992
G1 F1200 X131.831 Y144.46 E41.90493
G1 X132.736 Y144.31 E41.93544
G1 X162.736 Y144.29 E42.93324
G1 X163.024 Y144.152 E42.94386
G1 X163.884 Y144.025 E42.97278
G1 X167.344 Y144.017 E43.08786
G1 X168.179 Y144.222 E43.11646
G1 X169.074 Y144.685 E43.14997
G1 X169.698 Y145.356 E43.18045
G1 X170.23 Y146.249 E43.21502
G1 X170.385 Y147.215 E43.24756
G1 X170.4 Y148.891 E43.30331
G1 X170.208 Y149.684 E43.33044
G1 X170.057 Y149.997 E43.342
G1 X170.231 Y150.288 E43.35328
G1 X170.385 Y151.248 E43.38562
G1 X170.4 Y152.925 E43.4414
G1 X170.197 Y153.758 E43.46991
G1 X169.732 Y154.657 E43.50358
G1 X169.061 Y155.281 E43.53405
G1 X168.169 Y155.813 E43.5686
G1 X167.264 Y155.963 E43.59911
G1 X163.666 Y155.983 E43.71878
G1 X162.986 Y155.82 E43.74204
G1 X162.723 Y155.711 E43.75151
G1 X132.656 Y155.71 E44.75154
G1 X131.821 Y155.505 E44.78014
G1 X130.926 Y155.042 E44.81365
G1 X130.302 Y154.371 E44.84413
G1 X129.77 Y153.479 E44.87867
G1 X129.62 Y152.574 E44.90918
G1 X129.6 Y147.347 E45.08303
G1 X129.805 Y146.511 E45.11166
G1 X130.268 Y145.616 E45.14518
G1 X130.939 Y144.992 E45.17566
G0 F6000 X131.178 Y145.316
G1 F1200 X131.971 Y144.843 E45.20637
G1 X132.802 Y144.705 E45.23438
G1 X162.828 Y144.69 E46.23305
G1 X163.143 Y144.539 E46.24467
G1 X163.942 Y144.421 E46.27153
G1 X167.298 Y144.417 E46.38316
G1 X168.036 Y144.598 E46.40843
G1 X168.829 Y145.008 E46.43812
G1 X169.374 Y145.595 E46.46476
G1 X169.847 Y146.388 E46.49547
G1 X169.985 Y147.219 E46.52349
G1 X170 Y148.844 E46.57754
G1 X169.819 Y149.59 E46.60307
G1 X169.599 Y150.01 E46.61884
G1 X169.847 Y150.425 E46.63492
G1 X169.985 Y151.252 E46.66281
G1 X170 Y152.877 E46.71686
G1 X169.819 Y153.619 E46.74226
G1 X169.409 Y154.412 E46.77195
G1 X168.822 Y154.957 E46.79859
G1 X168.029 Y155.43 E46.82931
G1 X167.198 Y155.568 E46.85732
G1 X163.712 Y155.583 E46.97327
G1 X163.079 Y155.431 E46.99492
G1 X162.805 Y155.311 E47.00487
G1 X132.702 Y155.31 E48.0061
G1 X131.964 Y155.129 E48.03137
G1 X131.171 Y154.719 E48.06107
G1 X130.626 Y154.132 E48.08771
G1 X130.153 Y153.339 E48.11842
G1 X130.015 Y152.508 E48.14644
G1 X130 Y147.392 E48.31659
G1 X130.181 Y146.654 E48.34187
G1 X130.591 Y145.861 E48.37156
G1 X131.178 Y145.316 E48.3982
G0 F6000 X131.417 Y145.64
G1 F1200 X132.111 Y145.226 E48.42508
G1 X132.868 Y145.1 E48.4506
G1 X162.919 Y145.09 E49.4501
G1 X163.262 Y144.926 E49.46275
G1 X164 Y144.817 E49.48756
G1 X167.248 Y144.817 E49.59559
G1 X167.897 Y144.976 E49.61781
G1 X168.584 Y145.331 E49.64353
G1 X169.05 Y145.834 E49.66634
G1 X169.464 Y146.528 E49.69322
G1 X169.59 Y147.285 E49.71874
G1 X169.6 Y148.796 E49.769
G1 X169.441 Y149.448 E49.79132
G1 X169.141 Y150.023 E49.81289
G1 X169.464 Y150.563 E49.83382
G1 X169.59 Y151.318 E49.85928
G1 X169.6 Y152.829 E49.90954
G1 X169.441 Y153.48 E49.93182
G1 X169.086 Y154.167 E49.95754
G1 X168.583 Y154.633 E49.98035
G1 X167.889 Y155.047 E50.00723
G1 X167.132 Y155.173 E50.03275
G1 X163.759 Y155.183 E50.14494
G1 X163.173 Y155.042 E50.16499
G1 X162.896 Y154.911 E50.17518
G1 X132.752 Y154.91 E51.17777
G1 X132.103 Y154.751 E51.2
G1 X131.416 Y154.396 E51.22572
G1 X130.95 Y153.893 E51.24852
G1 X130.536 Y153.199 E51.2754
G1 X130.41 Y152.442 E51.30092
G1 X130.4 Y147.442 E51.46722
G1 X130.559 Y146.793 E51.48945
G1 X130.914 Y146.106 E51.51517
G1 X131.417 Y145.64 E51.53797
G0 F6000 X131.656 Y145.964
G1 F1200 X132.251 Y145.609 E51.56102
G1 X132.934 Y145.495 E51.58405
G1 X163.024 Y145.49 E52.58485
G1 X163.323 Y145.321 E52.59627
G1 X164 Y145.217 E52.61905
G1 X167.198 Y145.217 E52.72542
G1 X167.758 Y145.354 E52.74459
G1 X168.338 Y145.654 E52.76631
G1 X168.726 Y146.073 E52.78531
G1 X169.081 Y146.668 E52.80835
G1 X169.195 Y147.351 E52.83138
