;FLAVOR:Marlin
;TIME:1290
;Filament used: 0.714317m
;Layer height: 0.2
;MINX:134.896
;MINY:122.991
;MINZ:0.2
;MAXX:163.647
;MAXY:176.997
;MAXZ:14
;TARGET_MACHINE.NAME:Creality K1 Max
;Generated with Cura_SteamEngine 5.10.0
M140 S0
M104 S0 
START_PRINT EXTRUDER_TEMP=200 BED_TEMP=60

M82 ;absolute extrusion mode
G92 E0
G92 E0
G1 F2400 E-0.5
;LAYER_COUNT:70
;LAYER:0
M107
G0 F6000 X136.419 Y129.211 Z0.2
;TYPE:SKIRT
G1 F2400 E0
G1 F1200 X137.98 Y127.755 E0.071
G1 X139.141 Y127.08 E0.11567
G1 X139.373 Y126.891 E0.12562
G1 X139.97 Y126.491 E0.14952
G1 X141.025 Y125.264 E0.20334
G1 X142.831 Y124.2 E0.27306
G1 X144.96 Y123.253 E0.35056
G1 X146.872 Y123.027 E0.41459
G1 X149.432 Y122.991 E0.49975
G1 X151.794 Y123.509 E0.58018
G1 X154.149 Y124.643 E0.66711
G1 X154.773 Y125.24 E0.69583
G1 X156.518 Y125.666 E0.75558
G1 X158.123 Y126.502 E0.81577
G1 X158.22 Y126.566 E0.81963
G1 X158.562 Y126.65 E0.83135
G1 X160.624 Y127.719 E0.9086
G1 X162.083 Y129.28 E0.97966
G1 X163.29 Y131.303 E1.05801
G1 X163.572 Y133.021 E1.11592
G1 X163.647 Y166.853 E2.24118
G1 X163.181 Y168.749 E2.30612
G1 X162.128 Y170.777 E2.38212
G1 X160.567 Y172.236 E2.45319
G1 X158.544 Y173.443 E2.53154
G1 X157.967 Y173.538 E2.55099
G1 X156.735 Y174.279 E2.5988
G1 X155.658 Y174.571 E2.63592
G1 X154.942 Y174.677 E2.65999
G1 X153.449 Y175.748 E2.72111
G1 X151.2 Y176.625 E2.80139
G1 X149.779 Y176.988 E2.85017
G1 X146.595 Y176.997 E2.95607
G1 X144.085 Y176.468 E3.04139
G1 X141.983 Y175.399 E3.11983
G1 X140.099 Y173.683 E3.20458
G1 X139.946 Y173.509 E3.21229
G1 X139.332 Y173.104 E3.23675
G1 X139.088 Y172.895 E3.24744
G1 X137.91 Y172.21 E3.29276
G1 X137.379 Y171.802 E3.31504
G1 X135.843 Y169.836 E3.39802
G1 X134.896 Y167.27 E3.48899
G1 X134.896 Y162.147 E3.65938
G1 X135.362 Y160.251 E3.72432
G1 X136.418 Y158.215 E3.8006
G1 X137.976 Y156.762 E3.87146
G1 X139.047 Y156.13 E3.91282
G1 X139.047 Y143.877 E4.32036
G1 X137.996 Y143.271 E4.36071
G1 X137.379 Y142.804 E4.38645
G1 X135.843 Y140.836 E4.46948
G1 X134.896 Y138.27 E4.56045
G1 X134.896 Y133.142 E4.73101
G1 X135.362 Y131.246 E4.79595
G1 X136.419 Y129.211 E4.87222
G0 F6000 X136.742 Y129.456
G1 F1200 X138.218 Y128.079 E4.93935
G1 X139.369 Y127.41 E4.98363
G1 X139.596 Y127.223 E4.99342
G1 X140.238 Y126.793 E5.01912
G1 X141.286 Y125.574 E5.07258
G1 X142.994 Y124.565 E5.13856
G1 X145.067 Y123.643 E5.21402
G1 X146.878 Y123.427 E5.27469
G1 X149.39 Y123.392 E5.35824
G1 X151.666 Y123.891 E5.43574
G1 X153.918 Y124.975 E5.51887
G1 X154.593 Y125.62 E5.54992
G1 X154.72 Y125.636 E5.55418
G1 X156.373 Y126.042 E5.61079
G1 X157.938 Y126.857 E5.66948
G1 X158.05 Y126.936 E5.67404
G1 X158.42 Y127.027 E5.68671
G1 X160.379 Y128.042 E5.76009
G1 X161.759 Y129.519 E5.82732
G1 X162.907 Y131.443 E5.90184
G1 X163.177 Y133.086 E5.95722
G1 X163.247 Y166.807 E7.07879
G1 X162.805 Y168.606 E7.1404
G1 X161.805 Y170.532 E7.21258
G1 X160.328 Y171.912 E7.27981
G1 X158.404 Y173.06 E7.35433
G1 X157.827 Y173.155 E7.37378
G1 X156.577 Y173.907 E7.4223
G1 X155.599 Y174.175 E7.45603
G1 X154.788 Y174.295 E7.4833
G1 X153.258 Y175.393 E7.54593
G1 X151.055 Y176.252 E7.62458
G1 X149.727 Y176.588 E7.67014
G1 X146.635 Y176.597 E7.77298
G1 X144.221 Y176.088 E7.85503
G1 X142.212 Y175.066 E7.93
G1 X140.399 Y173.418 E8.01149
G1 X140.21 Y173.204 E8.02099
G1 X139.593 Y172.8 E8.04552
G1 X139.325 Y172.57 E8.05726
G1 X138.154 Y171.893 E8.10225
G1 X137.662 Y171.515 E8.12289
G1 X136.197 Y169.64 E8.20203
G1 X135.296 Y167.199 E8.28857
G1 X135.296 Y162.193 E8.45507
G1 X135.738 Y160.394 E8.51669
G1 X136.74 Y158.462 E8.58907
G1 X138.218 Y157.084 E8.65628
G1 X139.447 Y156.359 E8.70374
G1 X139.447 Y143.686 E9.12525
G1 X139.289 Y143.554 E9.1321
G1 X138.196 Y142.924 E9.17406
G1 X137.662 Y142.517 E9.19639
G1 X136.197 Y140.64 E9.27558
G1 X135.296 Y138.199 E9.36212
G1 X135.296 Y133.188 E9.52879
G1 X135.738 Y131.389 E9.5904
G1 X136.742 Y129.456 E9.66285
G0 F6000 X137.064 Y129.703
G1 F1200 X138.459 Y128.402 E9.7263
G1 X139.597 Y127.74 E9.77008
G1 X139.819 Y127.555 E9.77969
G1 X140.506 Y127.095 E9.80719
G1 X141.546 Y125.885 E9.86026
G1 X143.157 Y124.93 E9.92255
G1 X145.174 Y124.033 E9.99597
G1 X146.884 Y123.827 E10.05326
G1 X149.348 Y123.793 E10.13522
G1 X151.539 Y124.273 E10.20982
G1 X153.687 Y125.307 E10.28911
G1 X154.418 Y126.006 E10.32275
G1 X154.624 Y126.024 E10.32963
G1 X156.23 Y126.419 E10.38463
G1 X157.707 Y127.184 E10.43996
G1 X157.881 Y127.307 E10.44704
G1 X158.281 Y127.405 E10.46074
G1 X160.134 Y128.365 E10.53015
G1 X161.438 Y129.761 E10.59369
G1 X162.524 Y131.581 E10.66418
G1 X162.782 Y133.151 E10.7171
G1 X162.847 Y166.76 E11.83494
G1 X162.428 Y168.464 E11.89331
G1 X161.482 Y170.287 E11.96162
G1 X160.086 Y171.591 E12.02515
G1 X158.266 Y172.677 E12.09564
G1 X157.687 Y172.772 E12.11516
G1 X156.419 Y173.535 E12.16438
G1 X155.493 Y173.789 E12.19632
G1 X154.634 Y173.913 E12.22518
G1 X153.067 Y175.038 E12.28934
G1 X150.91 Y175.879 E12.36634
G1 X149.677 Y176.188 E12.40862
G1 X146.675 Y176.197 E12.50847
G1 X144.357 Y175.708 E12.58726
G1 X142.44 Y174.733 E12.6588
G1 X140.699 Y173.153 E12.73699
G1 X140.475 Y172.899 E12.74826
G1 X139.812 Y172.465 E12.77461
G1 X139.557 Y172.242 E12.78588
G1 X138.398 Y171.576 E12.83034
G1 X137.945 Y171.228 E12.84934
G1 X136.55 Y169.443 E12.92469
G1 X135.696 Y167.129 E13.00673
G1 X135.696 Y162.24 E13.16933
G1 X136.115 Y160.536 E13.2277
G1 X137.062 Y158.709 E13.29614
G1 X138.46 Y157.406 E13.3597
G1 X139.57 Y156.752 E13.40256
G1 X139.847 Y156.531 E13.41434
G1 X139.847 Y143.499 E13.84779
G1 X139.519 Y143.224 E13.86202
G1 X138.396 Y142.577 E13.90513
G1 X137.944 Y142.229 E13.9241
G1 X136.55 Y140.443 E13.99946
G1 X135.696 Y138.129 E14.0815
G1 X135.696 Y133.235 E14.24427
G1 X136.115 Y131.531 E14.30263
G1 X137.064 Y129.703 E14.37114
G0 F6000 X137.387 Y129.948
G1 F1200 X138.697 Y128.726 E14.43072
G1 X139.829 Y128.068 E14.47427
G1 X140.042 Y127.887 E14.48357
G1 X140.774 Y127.397 E14.51287
G1 X141.806 Y126.196 E14.56553
G1 X143.319 Y125.296 E14.62409
G1 X145.283 Y124.423 E14.69557
G1 X146.889 Y124.227 E14.74938
G1 X149.306 Y124.194 E14.82978
G1 X151.412 Y124.655 E14.90149
G1 X153.454 Y125.638 E14.97686
G1 X154.25 Y126.4 E15.01351
G1 X154.529 Y126.412 E15.0228
G1 X156.087 Y126.795 E15.07616
G1 X157.523 Y127.539 E15.12996
G1 X157.707 Y127.677 E15.13761
G1 X158.142 Y127.783 E15.1525
G1 X159.889 Y128.688 E15.21794
G1 X161.117 Y130.003 E15.27778
G1 X162.141 Y131.719 E15.34424
G1 X162.387 Y133.216 E15.3947
G1 X162.447 Y166.714 E16.50885
G1 X162.052 Y168.321 E16.56389
G1 X161.159 Y170.042 E16.62838
G1 X159.844 Y171.27 E16.68822
G1 X158.128 Y172.294 E16.75468
G1 X157.547 Y172.389 E16.77427
G1 X156.261 Y173.163 E16.82419
G1 X155.387 Y173.403 E16.85433
G1 X154.431 Y173.538 E16.88644
G1 X154.305 Y173.657 E16.89221
G1 X152.874 Y174.684 E16.95079
G1 X150.813 Y175.491 E17.02441
G1 X149.627 Y175.788 E17.06507
G1 X146.715 Y175.797 E17.16193
G1 X144.493 Y175.328 E17.23746
G1 X142.668 Y174.4 E17.30556
G1 X140.999 Y172.888 E17.38046
G1 X140.739 Y172.594 E17.39351
G1 X140.031 Y172.13 E17.42167
G1 X139.79 Y171.915 E17.43241
G1 X138.597 Y171.229 E17.47818
G1 X138.229 Y170.942 E17.4937
G1 X136.904 Y169.247 E17.56526
G1 X136.096 Y167.058 E17.64287
G1 X136.096 Y162.286 E17.80159
G1 X136.491 Y160.679 E17.85663
G1 X137.384 Y158.956 E17.92117
G1 X138.702 Y157.728 E17.98109
G1 X139.806 Y157.078 E18.0237
G1 X139.991 Y156.917 E18.03186
G1 X140.247 Y156.743 E18.04215
G1 X140.247 Y143.278 E18.49
G1 X139.971 Y143.105 E18.50083
G1 X139.761 Y142.901 E18.51057
G1 X138.596 Y142.23 E18.55529
G1 X138.228 Y141.943 E18.57081
G1 X136.904 Y140.247 E18.64237
G1 X136.096 Y138.058 E18.71998
G1 X136.096 Y133.281 E18.87886
G1 X136.491 Y131.674 E18.9339
G1 X137.387 Y129.948 E18.99858
G0 F6000 X137.71 Y130.193
G1 F1200 X138.935 Y129.05 E19.05431
G1 X140.061 Y128.396 E19.09762
G1 X140.264 Y128.219 E19.10658
G1 X141.043 Y127.698 E19.13775
G1 X142.066 Y126.508 E19.18994
G1 X143.524 Y125.64 E19.24638
G1 X145.392 Y124.813 E19.31432
G1 X146.894 Y124.627 E19.36466
G1 X149.265 Y124.595 E19.44353
G1 X151.282 Y125.036 E19.5122
G1 X153.222 Y125.97 E19.58381
G1 X154.089 Y126.8 E19.62373
G1 X154.434 Y126.8 E19.63521
G1 X155.944 Y127.171 E19.68692
G1 X157.339 Y127.894 E19.73918
G1 X157.527 Y128.045 E19.7472
G1 X158.003 Y128.161 E19.7635
G1 X159.644 Y129.011 E19.82497
G1 X160.796 Y130.245 E19.88111
G1 X161.758 Y131.857 E19.94355
G1 X161.992 Y133.281 E19.99155
G1 X162.047 Y166.668 E21.10201
G1 X161.676 Y168.178 E21.15372
G1 X160.836 Y169.797 E21.21439
G1 X159.602 Y170.949 E21.27054
G1 X157.99 Y171.911 E21.33297
G1 X157.407 Y172.006 E21.35262
G1 X156.101 Y172.792 E21.40332
G1 X155.331 Y173.007 E21.42991
G1 X154.241 Y173.161 E21.46652
G1 X154.072 Y173.332 E21.47452
G1 X152.681 Y174.331 E21.53148
G1 X150.716 Y175.103 E21.6017
G1 X149.577 Y175.388 E21.64075
G1 X146.755 Y175.397 E21.73461
G1 X144.629 Y174.948 E21.80688
G1 X142.896 Y174.067 E21.87154
G1 X141.299 Y172.623 E21.94315
G1 X141.004 Y172.289 E21.95797
G1 X140.25 Y171.795 E21.98795
G1 X140.017 Y171.58 E21.9985
G1 X139.908 Y171.527 E22.00253
G1 X138.798 Y170.883 E22.04521
G1 X138.513 Y170.656 E22.05733
G1 X137.257 Y169.05 E22.12514
G1 X136.496 Y166.988 E22.19824
G1 X136.496 Y162.332 E22.3531
G1 X136.867 Y160.822 E22.40482
G1 X137.706 Y159.203 E22.46547
G1 X138.945 Y158.049 E22.52178
G1 X139.949 Y157.453 E22.56062
G1 X140.028 Y157.416 E22.56352
G1 X140.254 Y157.219 E22.57349
G1 X140.647 Y156.956 E22.58922
G1 X140.647 Y143.057 E23.0515
G1 X140.219 Y142.788 E23.06832
G1 X139.994 Y142.569 E23.07876
G1 X139.91 Y142.529 E23.08185
G1 X138.797 Y141.884 E23.12464
G1 X138.512 Y141.657 E23.13676
G1 X137.257 Y140.05 E23.20457
G1 X136.496 Y137.988 E23.27768
G1 X136.496 Y133.327 E23.4327
G1 X136.867 Y131.817 E23.48442
G1 X137.71 Y130.193 E23.54528
G0 F6000 X138.032 Y130.44
G1 F1200 X139.177 Y129.372 E23.59736
G1 X140.19 Y128.778 E23.63641
G1 X140.282 Y128.734 E23.63981
G1 X140.486 Y128.552 E23.6489
G1 X141.31 Y128.001 E23.68187
G1 X142.327 Y126.817 E23.73378
G1 X143.686 Y126.006 E23.78642
G1 X145.5 Y125.203 E23.8524
G1 X146.899 Y125.027 E23.8993
G1 X149.224 Y124.996 E23.97663
G1 X151.152 Y125.417 E24.04227
G1 X152.99 Y126.302 E24.11012
G1 X153.928 Y127.2 E24.15331
G1 X154.387 Y127.2 E24.16858
G1 X155.802 Y127.548 E24.21704
G1 X157.117 Y128.229 E24.2663
G1 X157.346 Y128.413 E24.27607
G1 X157.864 Y128.539 E24.2938
G1 X159.399 Y129.334 E24.35129
G1 X160.475 Y130.487 E24.40375
G1 X161.375 Y131.995 E24.46216
G1 X161.597 Y133.346 E24.50769
G1 X161.647 Y166.621 E25.61443
G1 X161.299 Y168.036 E25.66289
G1 X160.513 Y169.552 E25.71969
G1 X159.36 Y170.628 E25.77214
G1 X157.852 Y171.528 E25.83055
G1 X157.248 Y171.626 E25.8509
G1 X157.146 Y171.701 E25.85511
G1 X155.943 Y172.421 E25.90174
G1 X155.275 Y172.611 E25.92484
G1 X154.045 Y172.785 E25.96616
G1 X153.839 Y173.007 E25.97623
G1 X152.489 Y173.977 E26.03152
G1 X150.619 Y174.715 E26.09839
G1 X149.527 Y174.988 E26.13583
G1 X146.795 Y174.997 E26.22669
G1 X144.762 Y174.568 E26.2958
G1 X143.127 Y173.736 E26.35682
G1 X141.599 Y172.358 E26.42525
G1 X141.26 Y171.974 E26.44229
G1 X141.176 Y171.927 E26.44549
G1 X140.471 Y171.461 E26.4736
G1 X140.245 Y171.245 E26.484
G1 X140.109 Y171.181 E26.489
G1 X138.999 Y170.537 E26.53168
G1 X138.8 Y170.374 E26.54023
G1 X137.611 Y168.854 E26.60442
G1 X136.896 Y166.917 E26.67309
G1 X136.896 Y162.379 E26.82403
G1 X137.244 Y160.964 E26.87249
G1 X138.028 Y159.45 E26.9292
G1 X139.186 Y158.371 E26.98184
G1 X140.12 Y157.815 E27.018
G1 X140.251 Y157.753 E27.02282
G1 X140.477 Y157.551 E27.0329
G1 X141.047 Y157.169 E27.05572
G1 X141.047 Y142.836 E27.53244
G1 X140.432 Y142.449 E27.55661
G1 X140.233 Y142.24 E27.5662
G1 X140.111 Y142.183 E27.57068
G1 X138.998 Y141.538 E27.61347
G1 X138.799 Y141.375 E27.62202
G1 X137.611 Y139.854 E27.68621
G1 X136.896 Y137.917 E27.75489
G1 X136.896 Y133.374 E27.90599
G1 X137.244 Y131.959 E27.95446
G1 X138.032 Y130.44 E28.01137
G0 F6000 X138.354 Y130.687
G1 F1200 X139.42 Y129.693 E28.05985
G1 X140.392 Y129.123 E28.09733
G1 X140.503 Y129.074 E28.10136
G1 X140.71 Y128.883 E28.11073
G1 X141.474 Y128.367 E28.14139
G1 X141.564 Y128.319 E28.14479
G1 X142.587 Y127.128 E28.19701
G1 X143.891 Y126.35 E28.24751
G1 X145.607 Y125.593 E28.30989
G1 X146.904 Y125.427 E28.35338
G1 X149.183 Y125.397 E28.42919
G1 X151.022 Y125.798 E28.49179
G1 X152.758 Y126.634 E28.55588
G1 X153.767 Y127.6 E28.60234
G1 X154.341 Y127.6 E28.62143
G1 X155.659 Y127.924 E28.66657
G1 X156.933 Y128.584 E28.71429
G1 X157.158 Y128.779 E28.72419
G1 X157.725 Y128.917 E28.7436
G1 X159.154 Y129.657 E28.79713
G1 X160.154 Y130.729 E28.84589
G1 X160.992 Y132.133 E28.90027
G1 X161.202 Y133.411 E28.94334
G1 X161.247 Y166.575 E30.04639
G1 X160.923 Y167.893 E30.09153
G1 X160.19 Y169.307 E30.1445
G1 X159.118 Y170.307 E30.19326
G1 X157.714 Y171.145 E30.24764
G1 X157.084 Y171.247 E30.26887
G1 X156.941 Y171.358 E30.27489
G1 X155.784 Y172.05 E30.31973
G1 X155.218 Y172.215 E30.33934
G1 X154.025 Y172.386 E30.37942
G1 X153.857 Y172.391 E30.38501
G1 X153.606 Y172.682 E30.3978
G1 X152.298 Y173.622 E30.45137
G1 X150.522 Y174.327 E30.51492
G1 X149.477 Y174.588 E30.55075
G1 X146.835 Y174.597 E30.63862
G1 X144.898 Y174.188 E30.70447
G1 X143.355 Y173.403 E30.76205
G1 X141.899 Y172.093 E30.82719
G1 X141.514 Y171.657 E30.84654
G1 X141.397 Y171.593 E30.85097
G1 X140.692 Y171.127 E30.87908
G1 X140.475 Y170.909 E30.88931
G1 X140.31 Y170.835 E30.89532
G1 X139.2 Y170.191 E30.93801
G1 X139.086 Y170.091 E30.94305
G1 X137.965 Y168.658 E31.00356
G1 X137.296 Y166.846 E31.06781
G1 X137.296 Y162.425 E31.21485
G1 X137.62 Y161.107 E31.25999
G1 X138.35 Y159.697 E31.3128
G1 X139.428 Y158.693 E31.3618
G1 X140.325 Y158.159 E31.39652
G1 X140.474 Y158.091 E31.40197
G1 X140.7 Y157.883 E31.41218
G1 X141.447 Y157.382 E31.4421
G1 X141.447 Y142.616 E31.93322
G1 X140.69 Y142.139 E31.96298
G1 X140.468 Y141.907 E31.97366
G1 X140.312 Y141.837 E31.97934
G1 X139.199 Y141.192 E32.02213
G1 X139.085 Y141.092 E32.02717
G1 X137.964 Y139.657 E32.08774
G1 X137.296 Y137.847 E32.15191
G1 X137.296 Y133.42 E32.29915
G1 X137.62 Y132.102 E32.34429
G1 X138.354 Y130.687 E32.39731
G0 F6000 X138.676 Y130.934
G1 F1200 X139.663 Y130.014 E32.44219
G1 X140.594 Y129.468 E32.47808
G1 X140.726 Y129.414 E32.48283
G1 X140.935 Y129.214 E32.49245
G1 X141.663 Y128.72 E32.52171
G1 X141.818 Y128.637 E32.52756
G1 X142.847 Y127.439 E32.58009
G1 X144.096 Y126.694 E32.62846
G1 X145.714 Y125.983 E32.68724
G1 X146.909 Y125.827 E32.72732
G1 X149.142 Y125.798 E32.8016
G1 X150.892 Y126.179 E32.86117
G1 X152.526 Y126.966 E32.92149
G1 X153.606 Y128 E32.97122
G1 X154.295 Y128 E32.99413
G1 X155.516 Y128.3 E33.03595
G1 X156.707 Y128.917 E33.08056
G1 X156.97 Y129.145 E33.09214
G1 X157.586 Y129.295 E33.11323
G1 X158.907 Y129.979 E33.16271
G1 X159.835 Y130.974 E33.20796
G1 X160.609 Y132.271 E33.2582
G1 X160.807 Y133.476 E33.29881
G1 X160.847 Y166.529 E34.39816
G1 X160.547 Y167.75 E34.43998
G1 X159.868 Y169.06 E34.48905
G1 X158.873 Y169.988 E34.53431
G1 X157.576 Y170.762 E34.58454
G1 X156.914 Y170.869 E34.60685
G1 X156.736 Y171.015 E34.6145
G1 X155.623 Y171.681 E34.65764
G1 X155.16 Y171.819 E34.67371
G1 X154.013 Y171.986 E34.71226
G1 X153.669 Y171.996 E34.72371
G1 X153.334 Y172.385 E34.74079
G1 X152.106 Y173.267 E34.79107
G1 X150.374 Y173.955 E34.85306
G1 X149.428 Y174.188 E34.88546
G1 X146.875 Y174.197 E34.97037
G1 X145.034 Y173.808 E35.03296
G1 X143.583 Y173.07 E35.0871
G1 X142.199 Y171.828 E35.14895
G1 X141.768 Y171.34 E35.17061
G1 X141.617 Y171.259 E35.17631
G1 X140.948 Y170.817 E35.20298
G1 X140.706 Y170.573 E35.21441
G1 X140.511 Y170.489 E35.22147
G1 X139.401 Y169.845 E35.26415
G1 X138.319 Y168.462 E35.32255
G1 X137.696 Y166.775 E35.38237
G1 X137.696 Y162.471 E35.52552
G1 X137.996 Y161.25 E35.56734
G1 X138.673 Y159.942 E35.61632
G1 X139.667 Y159.017 E35.66148
G1 X140.53 Y158.503 E35.69489
G1 X140.698 Y158.43 E35.70099
G1 X140.923 Y158.215 E35.71134
G1 X141.847 Y157.595 E35.74835
G1 X141.847 Y142.461 E36.25171
G1 X141.727 Y142.32 E36.25786
G1 X140.946 Y141.827 E36.28858
G1 X140.701 Y141.571 E36.30037
G1 X140.513 Y141.491 E36.30716
G1 X139.4 Y140.846 E36.34995
G1 X138.318 Y139.461 E36.4084
G1 X137.696 Y137.776 E36.46814
