;FLAVOR:Marlin
;TIME:1824
;Filament used: 1.65597m
;Layer height: 0.2
;MINX:113.605
;MINY:121.204
;MINZ:0.2
;MAXX:185.339
;MAXY:178.796
;MAXZ:13.8
;TARGET_MACHINE.NAME:Creality K1 Max
;Generated with Cura_SteamEngine 5.10.0
M140 S0
M104 S0 
START_PRINT EXTRUDER_TEMP=200 BED_TEMP=60

M82 ;absolute extrusion mode
G92 E0
G92 E0
G1 F2400 E-0.5
;LAYER_COUNT:69
;LAYER:0
M107
G0 F6000 X122.699 Y128.987 Z0.2
;TYPE:SKIRT
G1 F2400 E0
G1 F1200 X124.439 Y127.476 E0.07665
G1 X125.553 Y126.632 E0.12313
G1 X127.559 Y125.31 E0.20304
G1 X128.774 Y124.619 E0.24953
G1 X130.926 Y123.577 E0.32905
G1 X132.274 Y123.029 E0.37745
G1 X134.248 Y122.375 E0.44662
G1 X136.175 Y121.882 E0.51277
G1 X138.236 Y121.506 E0.58245
G1 X139.623 Y121.338 E0.62892
G1 X142.067 Y121.204 E0.71033
G1 X143.966 Y121.24 E0.7735
G1 X145.487 Y121.364 E0.82426
G1 X147.2 Y121.606 E0.8818
G1 X149.566 Y122.103 E0.96221
G1 X151.007 Y122.514 E1.01205
G1 X152.835 Y123.161 E1.07655
G1 X154.866 Y124.043 E1.15019
G1 X156.519 Y124.895 E1.21204
G1 X157.8 Y125.659 E1.26165
G1 X159.613 Y126.913 E1.33497
G1 X161.191 Y128.174 E1.40216
G1 X162.283 Y129.17 E1.45131
G1 X169.237 Y129.173 E1.68261
G1 X170.465 Y128.146 E1.73585
G1 X172.539 Y127.25 E1.81099
G1 X174.128 Y126.77 E1.8662
G1 X177.442 Y126.771 E1.97643
G1 X179.503 Y127.4 E2.0481
G1 X180.897 Y128.022 E2.09887
G1 X182.842 Y129.595 E2.18207
G1 X184.032 Y131.295 E2.25109
G1 X184.845 Y132.784 E2.30751
G1 X185.339 Y135.127 E2.38715
G1 X185.338 Y138.311 E2.49305
G1 X184.479 Y141.098 E2.59005
G1 X184.297 Y141.459 E2.6035
G1 X182.77 Y143.377 E2.68504
G1 X181.107 Y144.776 E2.75732
G1 X179.16 Y145.633 E2.82807
G1 X178.624 Y145.8 E2.84675
G1 X178.625 Y154.131 E3.12384
G1 X179.878 Y154.52 E3.16747
G1 X180.738 Y154.906 E3.19883
G1 X182.582 Y156.368 E3.2771
G1 X183.934 Y158.004 E3.34769
G1 X184.928 Y160.111 E3.42517
G1 X185.338 Y162.082 E3.49213
G1 X185.337 Y165.311 E3.59953
G1 X184.478 Y168.098 E3.69653
G1 X184.296 Y168.459 E3.70997
G1 X182.761 Y170.385 E3.79189
G1 X181.113 Y171.774 E3.86357
G1 X179.194 Y172.62 E3.93333
G1 X177.349 Y173.195 E3.9976
G1 X174.396 Y173.102 E4.09587
G1 X173.011 Y172.897 E4.14244
G1 X170.637 Y171.956 E4.22737
G1 X169.262 Y170.768 E4.28781
G1 X162.36 Y170.77 E4.51737
G1 X161.281 Y171.754 E4.56594
G1 X159.556 Y173.125 E4.63923
G1 X158.054 Y174.168 E4.70005
G1 X156.233 Y175.258 E4.77064
G1 X154.922 Y175.934 E4.8197
G1 X152.831 Y176.839 E4.89548
G1 X150.955 Y177.503 E4.96167
G1 X149.628 Y177.881 E5.00756
G1 X147.246 Y178.384 E5.08853
G1 X145.393 Y178.644 E5.15077
G1 X143.904 Y178.761 E5.20044
G1 X142.13 Y178.796 E5.25946
G1 X139.662 Y178.666 E5.34166
G1 X137.88 Y178.439 E5.40141
G1 X136.233 Y178.13 E5.45714
G1 X134.209 Y177.612 E5.52663
G1 X132.521 Y177.055 E5.58575
G1 X130.549 Y176.252 E5.65657
G1 X129.29 Y175.647 E5.70303
G1 X127.264 Y174.502 E5.78043
G1 X125.79 Y173.528 E5.83919
G1 X124.096 Y172.247 E5.90983
G1 X123.011 Y171.309 E5.95753
G1 X121.351 Y169.661 E6.03533
G1 X120.352 Y168.537 E6.08535
G1 X118.966 Y166.746 E6.16067
G1 X117.905 Y165.168 E6.22392
G1 X117.142 Y163.86 E6.27428
G1 X116.147 Y161.848 E6.34894
G1 X115.476 Y160.239 E6.40692
G1 X114.868 Y158.459 E6.46948
G1 X114.324 Y156.423 E6.53958
G1 X114.01 Y154.867 E6.59237
G1 X113.732 Y152.779 E6.66243
G1 X113.607 Y150.75 E6.73004
G1 X113.605 Y149.35 E6.77661
G1 X113.753 Y146.945 E6.85675
G1 X113.938 Y145.545 E6.90372
G1 X114.409 Y143.229 E6.98233
G1 X114.917 Y141.36 E7.04674
G1 X115.368 Y140.038 E7.0932
G1 X116.274 Y137.876 E7.17117
G1 X117.052 Y136.318 E7.22909
G1 X118.098 Y134.526 E7.2981
G1 X118.922 Y133.303 E7.34715
G1 X120.196 Y131.657 E7.41638
G1 X121.591 Y130.082 E7.48636
G1 X122.699 Y128.987 E7.53817
G0 F6000 X122.98 Y129.272
G1 F1200 X124.681 Y127.795 E7.6131
G1 X125.795 Y126.951 E7.65958
G1 X127.757 Y125.658 E7.73774
G1 X128.972 Y124.967 E7.78423
G1 X131.077 Y123.948 E7.86201
G1 X132.425 Y123.4 E7.91041
G1 X134.347 Y122.763 E7.97775
G1 X136.274 Y122.27 E8.04391
G1 X138.284 Y121.903 E8.11187
G1 X139.671 Y121.735 E8.15834
G1 X142.06 Y121.604 E8.23791
G1 X143.933 Y121.639 E8.30022
G1 X145.454 Y121.763 E8.35098
G1 X147.144 Y122.002 E8.40775
G1 X149.456 Y122.488 E8.48633
G1 X150.897 Y122.899 E8.53616
G1 X152.701 Y123.538 E8.59982
G1 X154.707 Y124.41 E8.67257
G1 X156.314 Y125.239 E8.73271
G1 X157.595 Y126.003 E8.78232
G1 X159.363 Y127.225 E8.8538
G1 X160.921 Y128.47 E8.92013
G1 X162.127 Y129.57 E8.97443
G1 X169.383 Y129.573 E9.21576
G1 X170.678 Y128.49 E9.27191
G1 X172.655 Y127.633 E9.34358
G1 X174.188 Y127.17 E9.39684
G1 X177.381 Y127.171 E9.50304
G1 X179.386 Y127.783 E9.57276
G1 X180.686 Y128.366 E9.62015
G1 X182.548 Y129.872 E9.6998
G1 X183.681 Y131.487 E9.76542
G1 X184.467 Y132.926 E9.81995
G1 X184.939 Y135.166 E9.89609
G1 X184.938 Y138.251 E9.9987
G1 X184.097 Y140.98 E10.09368
G1 X183.959 Y141.242 E10.10353
G1 X182.481 Y143.098 E10.18244
G1 X180.895 Y144.432 E10.25137
G1 X179.041 Y145.251 E10.31878
G1 X178.224 Y145.505 E10.34724
G1 X178.225 Y154.426 E10.64395
G1 X179.714 Y154.885 E10.69578
G1 X180.529 Y155.251 E10.72549
G1 X182.301 Y156.656 E10.80071
G1 X183.593 Y158.218 E10.86813
G1 X184.546 Y160.239 E10.94245
G1 X184.938 Y162.124 E11.00648
G1 X184.937 Y165.251 E11.11049
G1 X184.096 Y167.98 E11.20547
G1 X183.958 Y168.242 E11.21531
G1 X182.474 Y170.104 E11.29451
G1 X180.899 Y171.431 E11.36301
G1 X179.075 Y172.238 E11.42935
G1 X177.294 Y172.793 E11.49139
G1 X174.454 Y172.706 E11.5859
G1 X173.114 Y172.508 E11.63095
G1 X170.849 Y171.61 E11.71199
G1 X169.412 Y170.368 E11.77516
G1 X162.204 Y170.37 E12.0149
G1 X161.011 Y171.458 E12.0686
G1 X159.328 Y172.796 E12.14011
G1 X157.826 Y173.839 E12.20093
G1 X156.05 Y174.902 E12.26977
G1 X154.739 Y175.578 E12.31883
G1 X152.697 Y176.462 E12.39284
G1 X150.845 Y177.118 E12.45819
G1 X149.518 Y177.496 E12.50408
G1 X147.19 Y177.988 E12.58322
G1 X145.361 Y178.245 E12.64465
G1 X143.896 Y178.361 E12.69353
G1 X142.122 Y178.396 E12.75255
G1 X139.713 Y178.269 E12.83278
G1 X137.931 Y178.042 E12.89253
G1 X136.332 Y177.742 E12.94664
G1 X134.308 Y177.224 E13.01613
G1 X132.672 Y176.684 E13.07343
G1 X130.722 Y175.891 E13.14344
G1 X129.463 Y175.286 E13.1899
G1 X127.485 Y174.168 E13.26547
G1 X126.011 Y173.194 E13.32424
G1 X124.358 Y171.944 E13.39316
G1 X123.273 Y171.006 E13.44087
G1 X121.65 Y169.395 E13.51693
G1 X120.651 Y168.271 E13.56694
G1 X119.298 Y166.523 E13.64046
G1 X118.251 Y164.966 E13.70287
G1 X117.488 Y163.658 E13.75323
G1 X116.516 Y161.694 E13.82612
G1 X115.855 Y160.11 E13.88321
G1 X115.247 Y158.33 E13.94577
G1 X114.716 Y156.344 E14.01414
G1 X114.407 Y154.814 E14.06606
G1 X114.129 Y152.726 E14.13612
G1 X114.007 Y150.749 E14.202
G1 X114.005 Y149.349 E14.24856
G1 X114.15 Y146.997 E14.32694
G1 X114.335 Y145.597 E14.37391
G1 X114.795 Y143.334 E14.45071
G1 X115.296 Y141.489 E14.5143
G1 X115.747 Y140.167 E14.56076
G1 X116.632 Y138.055 E14.63692
G1 X117.41 Y136.497 E14.69484
G1 X118.43 Y134.75 E14.76213
G1 X119.254 Y133.527 E14.81118
G1 X120.512 Y131.902 E14.87953
G1 X121.872 Y130.367 E14.94774
G1 X122.98 Y129.272 E14.99955
G0 F6000 X123.261 Y129.557
G1 F1200 X124.923 Y128.114 E15.07276
G1 X126.037 Y127.27 E15.11924
G1 X127.955 Y126.006 E15.19564
G1 X129.17 Y125.315 E15.24213
G1 X131.228 Y124.319 E15.31817
G1 X132.576 Y123.771 E15.36657
G1 X134.446 Y123.151 E15.4321
G1 X136.373 Y122.658 E15.49825
G1 X138.332 Y122.3 E15.56449
G1 X139.719 Y122.132 E15.61096
G1 X142.053 Y122.004 E15.68871
G1 X143.9 Y122.038 E15.75015
G1 X145.421 Y122.162 E15.8009
G1 X147.088 Y122.398 E15.8569
G1 X149.346 Y122.873 E15.93365
G1 X150.787 Y123.284 E15.98349
G1 X152.542 Y123.905 E16.0454
G1 X154.524 Y124.766 E16.11728
G1 X156.109 Y125.583 E16.17659
G1 X157.39 Y126.347 E16.22619
G1 X159.135 Y127.554 E16.29676
G1 X160.651 Y128.766 E16.36132
G1 X161.971 Y129.97 E16.42074
G1 X169.504 Y129.973 E16.67129
G1 X169.747 Y129.79 E16.68141
G1 X170.89 Y128.834 E16.73097
G1 X172.771 Y128.016 E16.79919
G1 X174.248 Y127.57 E16.85051
G1 X177.321 Y127.571 E16.95272
G1 X179.222 Y128.148 E17.01879
G1 X180.477 Y128.711 E17.06454
G1 X182.253 Y130.147 E17.1405
G1 X183.33 Y131.679 E17.20279
G1 X184.088 Y133.067 E17.25539
G1 X184.539 Y135.206 E17.3281
G1 X184.538 Y138.191 E17.42738
G1 X183.715 Y140.862 E17.52034
G1 X183.646 Y140.993 E17.52526
G1 X182.192 Y142.819 E17.6029
G1 X180.683 Y144.088 E17.66848
G1 X178.922 Y144.869 E17.73255
G1 X177.824 Y145.211 E17.7708
G1 X177.825 Y154.721 E18.0871
G1 X179.55 Y155.25 E18.14711
G1 X180.32 Y155.596 E18.17519
G1 X182.02 Y156.944 E18.24735
G1 X183.252 Y158.433 E18.31163
G1 X184.164 Y160.367 E18.38275
G1 X184.538 Y162.166 E18.44386
G1 X184.537 Y165.191 E18.54448
G1 X183.714 Y167.862 E18.63743
G1 X183.645 Y167.993 E18.64236
G1 X182.187 Y169.823 E18.72018
G1 X180.685 Y171.088 E18.7855
G1 X178.956 Y171.856 E18.84842
G1 X177.239 Y172.391 E18.90824
G1 X174.512 Y172.31 E18.99898
G1 X173.217 Y172.119 E19.04251
G1 X171.059 Y171.263 E19.11973
G1 X169.694 Y170.084 E19.17972
G1 X169.479 Y169.968 E19.18785
G1 X162.016 Y169.97 E19.43607
G1 X161.786 Y170.209 E19.4471
G1 X160.741 Y171.162 E19.49414
G1 X159.1 Y172.467 E19.56387
G1 X157.598 Y173.51 E19.62469
G1 X155.867 Y174.546 E19.69179
G1 X154.556 Y175.222 E19.74085
G1 X152.538 Y176.095 E19.81398
G1 X150.735 Y176.733 E19.87759
G1 X149.408 Y177.111 E19.92348
G1 X147.134 Y177.592 E20.00079
G1 X145.329 Y177.846 E20.06142
G1 X143.888 Y177.961 E20.1095
G1 X142.114 Y177.996 E20.16851
G1 X139.764 Y177.872 E20.24678
G1 X137.982 Y177.645 E20.30653
G1 X136.431 Y177.354 E20.35902
G1 X134.407 Y176.836 E20.4285
G1 X132.797 Y176.304 E20.4849
G1 X130.895 Y175.53 E20.5532
G1 X129.636 Y174.925 E20.59966
G1 X127.706 Y173.834 E20.6734
G1 X126.232 Y172.86 E20.73216
G1 X124.62 Y171.641 E20.79938
G1 X123.535 Y170.703 E20.84708
G1 X121.949 Y169.129 E20.9214
G1 X120.95 Y168.005 E20.97142
G1 X119.63 Y166.3 E21.04313
G1 X118.597 Y164.764 E21.1047
G1 X117.834 Y163.456 E21.15506
G1 X116.875 Y161.517 E21.22701
G1 X116.234 Y159.981 E21.28237
G1 X115.626 Y158.201 E21.34493
G1 X115.108 Y156.265 E21.41159
G1 X114.804 Y154.761 E21.46262
G1 X114.526 Y152.673 E21.53268
G1 X114.407 Y150.748 E21.59683
G1 X114.405 Y149.348 E21.6434
G1 X114.547 Y147.049 E21.72001
G1 X114.732 Y145.649 E21.76698
G1 X115.181 Y143.439 E21.84198
G1 X115.675 Y141.618 E21.90474
G1 X116.126 Y140.296 E21.9512
G1 X116.99 Y138.234 E22.02556
G1 X117.768 Y136.676 E22.08348
G1 X118.762 Y134.974 E22.14903
G1 X119.586 Y133.751 E22.19808
G1 X120.812 Y132.167 E22.2647
G1 X122.153 Y130.652 E22.33199
G1 X123.261 Y129.557 E22.38381
G0 F6000 X123.542 Y129.842
G1 F1200 X125.165 Y128.433 E22.45529
G1 X126.279 Y127.589 E22.50178
G1 X128.153 Y126.354 E22.57642
G1 X129.368 Y125.663 E22.62291
G1 X131.379 Y124.69 E22.69722
G1 X132.727 Y124.142 E22.74562
G1 X134.545 Y123.539 E22.80932
G1 X136.472 Y123.046 E22.87548
G1 X138.38 Y122.697 E22.93999
G1 X139.767 Y122.529 E22.98646
G1 X142.046 Y122.404 E23.06237
G1 X143.867 Y122.437 E23.12295
G1 X145.388 Y122.561 E23.17371
G1 X147.032 Y122.794 E23.22893
G1 X149.236 Y123.258 E23.30385
G1 X150.677 Y123.669 E23.35368
G1 X152.408 Y124.282 E23.41476
G1 X154.341 Y125.122 E23.48486
G1 X155.904 Y125.927 E23.54334
G1 X157.185 Y126.691 E23.59295
G1 X158.885 Y127.866 E23.66168
G1 X160.381 Y129.062 E23.72538
G1 X161.608 Y130.181 E23.78062
G1 X161.79 Y130.37 E23.78934
G1 X169.611 Y130.373 E24.04947
G1 X169.872 Y130.223 E24.05948
G1 X170.004 Y130.097 E24.06555
G1 X171.103 Y129.178 E24.1132
G1 X172.887 Y128.399 E24.17795
G1 X174.308 Y127.97 E24.22732
G1 X177.261 Y127.971 E24.32553
G1 X179.058 Y128.513 E24.38796
G1 X180.268 Y129.056 E24.43207
G1 X181.958 Y130.422 E24.50435
G1 X182.979 Y131.871 E24.5633
G1 X183.71 Y133.209 E24.61401
G1 X184.139 Y135.245 E24.68322
G1 X184.138 Y138.131 E24.77921
G1 X183.333 Y140.744 E24.87015
G1 X181.903 Y142.54 E24.9465
G1 X180.47 Y143.745 E25.00878
G1 X178.803 Y144.487 E25.06947
G1 X177.424 Y144.916 E25.1175
G1 X177.425 Y155.018 E25.45349
G1 X179.386 Y155.615 E25.52167
G1 X180.111 Y155.941 E25.54811
G1 X181.739 Y157.232 E25.61722
G1 X182.911 Y158.648 E25.67835
G1 X183.781 Y160.494 E25.74623
G1 X184.138 Y162.209 E25.80449
G1 X184.137 Y165.131 E25.90168
G1 X183.332 Y167.744 E25.99262
G1 X181.9 Y169.542 E26.06907
G1 X180.471 Y170.745 E26.1312
G1 X178.794 Y171.49 E26.19223
G1 X177.185 Y171.989 E26.24826
G1 X174.571 Y171.914 E26.33524
G1 X173.32 Y171.729 E26.3773
G1 X171.269 Y170.916 E26.45068
G1 X169.922 Y169.753 E26.50987
G1 X169.58 Y169.568 E26.5228
G1 X161.846 Y169.57 E26.78004
G1 X161.516 Y169.913 E26.79587
G1 X160.471 Y170.866 E26.84291
G1 X158.872 Y172.138 E26.91087
G1 X157.37 Y173.181 E26.97169
G1 X155.684 Y174.19 E27.03704
G1 X154.373 Y174.866 E27.0861
G1 X152.404 Y175.718 E27.15745
G1 X150.625 Y176.348 E27.22023
G1 X149.298 Y176.726 E27.26612
G1 X147.078 Y177.196 E27.34159
G1 X145.297 Y177.447 E27.40141
G1 X143.88 Y177.561 E27.44869
G1 X142.106 Y177.596 E27.50771
G1 X139.815 Y177.475 E27.58401
G1 X138.033 Y177.248 E27.64376
G1 X136.53 Y176.966 E27.69463
G1 X134.506 Y176.448 E27.76411
G1 X132.923 Y175.924 E27.81957
G1 X131.068 Y175.169 E27.88619
G1 X129.809 Y174.564 E27.93264
G1 X127.927 Y173.5 E28.00455
G1 X126.453 Y172.526 E28.06331
G1 X124.882 Y171.338 E28.12882
G1 X123.797 Y170.4 E28.17653
G1 X122.248 Y168.863 E28.2491
G1 X121.249 Y167.739 E28.29912
G1 X119.962 Y166.077 E28.36904
G1 X118.943 Y164.562 E28.42976
G1 X118.18 Y163.254 E28.48013
G1 X117.244 Y161.363 E28.55031
G1 X116.613 Y159.852 E28.60477
G1 X116.005 Y158.072 E28.66733
G1 X115.5 Y156.186 E28.73227
G1 X115.201 Y154.708 E28.78242
G1 X114.923 Y152.62 E28.85248
G1 X114.807 Y150.747 E28.9149
G1 X114.805 Y149.347 E28.96146
G1 X114.944 Y147.101 E29.03631
G1 X115.129 Y145.701 E29.08328
G1 X115.567 Y143.544 E29.15648
G1 X116.054 Y141.747 E29.21841
G1 X116.505 Y140.425 E29.26486
G1 X117.348 Y138.413 E29.33742
G1 X118.114 Y136.878 E29.39448
G1 X119.094 Y135.198 E29.45917
G1 X119.918 Y133.975 E29.50822
G1 X121.128 Y132.412 E29.57396
G1 X122.434 Y130.937 E29.63948
G1 X123.542 Y129.842 E29.6913
G0 F6000 X123.823 Y130.127
G1 F1200 X125.407 Y128.752 E29.76106
G1 X126.521 Y127.908 E29.80755
G1 X128.351 Y126.702 E29.88044
G1 X129.566 Y126.011 E29.92693
G1 X131.53 Y125.061 E29.99949
G1 X132.878 Y124.513 E30.04789
G1 X134.644 Y123.927 E30.10978
G1 X136.571 Y123.434 E30.17593
G1 X138.428 Y123.094 E30.23873
G1 X139.815 Y122.926 E30.28519
G1 X142.039 Y122.804 E30.35928
G1 X143.834 Y122.836 E30.41899
G1 X145.355 Y122.96 E30.46974
G1 X146.976 Y123.19 E30.5242
G1 X149.126 Y123.643 E30.59728
G1 X150.567 Y124.054 E30.64712
G1 X152.274 Y124.659 E30.70735
G1 X154.158 Y125.478 E30.77568
G1 X155.699 Y126.271 E30.83332
G1 X156.98 Y127.035 E30.88293
G1 X158.635 Y128.179 E30.94985
G1 X160.111 Y129.358 E31.01268
G1 X161.338 Y130.477 E31.06791
G1 X161.62 Y130.77 E31.08144
G1 X169.718 Y130.773 E31.35078
G1 X170.115 Y130.545 E31.366
G1 X170.261 Y130.404 E31.37275
G1 X171.316 Y129.522 E31.41849
G1 X173.047 Y128.766 E31.48132
G1 X174.367 Y128.37 E31.52715
G1 X177.202 Y128.371 E31.62144
G1 X178.894 Y128.878 E31.68019
G1 X180.059 Y129.401 E31.72267
G1 X181.661 Y130.696 E31.79118
G1 X182.628 Y132.063 E31.84687
G1 X183.331 Y133.35 E31.89565
G1 X183.739 Y135.285 E31.96142
G1 X183.738 Y138.071 E32.05408
G1 X182.973 Y140.554 E32.1405
G1 X181.614 Y142.261 E32.21307
G1 X180.256 Y143.403 E32.27209
G1 X178.684 Y144.105 E32.32935
G1 X177.247 Y144.552 E32.3794
G1 X177.024 Y144.57 E32.38684
G1 X177.025 Y155.371 E32.74608
G1 X177.266 Y155.388 E32.75412
G1 X179.269 Y155.998 E32.82376
G1 X179.902 Y156.286 E32.84689
G1 X181.458 Y157.52 E32.91294
G1 X182.57 Y158.863 E32.97094
G1 X183.399 Y160.622 E33.03561
G1 X183.738 Y162.251 E33.09095
G1 X183.737 Y165.071 E33.18475
G1 X182.972 Y167.554 E33.27116
G1 X181.613 Y169.261 E33.34373
G1 X180.257 Y170.402 E33.40268
G1 X178.632 Y171.124 E33.46182
G1 X177.131 Y171.587 E33.51406
G1 X174.629 Y171.518 E33.59731
G1 X173.423 Y171.34 E33.63786
G1 X171.479 Y170.569 E33.70742
G1 X170.151 Y169.423 E33.76576
G1 X169.907 Y169.292 E33.77497
G1 X169.725 Y169.168 E33.78229
G1 X161.676 Y169.17 E34.05001
G1 X161.246 Y169.617 E34.07063
G1 X160.201 Y170.57 E34.11767
G1 X158.644 Y171.809 E34.18386
G1 X157.142 Y172.852 E34.24468
G1 X155.501 Y173.834 E34.30828
